packages/assets/application-icons/20.Settings.svg

<?xml version="1.0" encoding="UTF-8"?>
<svg width="24px" height="24px" viewBox="0 0 24 24" version="1.1" xmlns="http://www.w3.org/2000/svg" xmlns:xlink="http://www.w3.org/1999/xlink">
    <title>20.Settings</title>
    <g id="Page-1" stroke="none" stroke-width="1" fill="none" fill-rule="evenodd">
        <g id="Artboard" transform="translate(-100.000000, -203.000000)" fill="#000000" fill-rule="nonzero">
            <g id="20.Settings" transform="translate(100.000000, 203.000000)">
                <path d="M8.99992187,14.9998437 C10.3654293,14.9998437 11.5568323,15.926453 11.8930092,17.2499316 L11.8930092,17.2499316 L20.2497754,17.2499316 C20.6639835,17.2499316 20.9997656,17.5857137 20.9997656,17.9999219 C20.9997656,18.41413 20.6639835,18.7499121 20.2497754,18.7499121 L20.2497754,18.7499121 L11.8930092,18.7499121 C11.5568323,20.0733907 10.3654293,21 8.99992187,21 C7.63441446,21 6.4430114,20.0733907 6.10683454,18.7499121 L6.10683454,18.7499121 L3.74999023,18.7499121 C3.33578207,18.7499121 3,18.41413 3,17.9999219 C3,17.5857137 3.33578207,17.2499316 3.74999023,17.2499316 L3.74999023,17.2499316 L6.10683454,17.2499316 C6.4430114,15.926453 7.63441446,14.9998437 8.99992187,14.9998437 Z M8.99992187,16.4999414 C8.17150553,16.4999414 7.4999414,17.1715055 7.4999414,17.9999219 C7.4999414,18.8283382 8.17150553,19.4999023 8.99992187,19.4999023 C9.82833821,19.4999023 10.4999023,18.8283382 10.4999023,17.9999219 C10.4999023,17.1715055 9.82833821,16.4999414 8.99992187,16.4999414 Z M14.9998437,8.99992187 C16.3653511,8.99992187 17.5567542,9.92653117 17.8929311,11.2500098 L17.8929311,11.2500098 L20.2497754,11.2500098 C20.6639835,11.2500098 20.9997656,11.5857918 20.9997656,12 C20.9997656,12.4142082 20.6639835,12.7499902 20.2497754,12.7499902 L20.2497754,12.7499902 L17.8929311,12.7499902 C17.5567542,14.0734688 16.3653511,15.0000781 14.9998437,15.0000781 C13.6343363,15.0000781 12.4429333,14.0734688 12.1067564,12.7499902 L12.1067564,12.7499902 L3.74999023,12.7499902 C3.33578207,12.7499902 3,12.4142082 3,12 C3,11.5857918 3.33578207,11.2500098 3.74999023,11.2500098 L3.74999023,11.2500098 L12.1067564,11.2500098 C12.4429333,9.92653117 13.6343363,8.99992187 14.9998437,8.99992187 Z M14.9998437,10.5000195 C14.1714274,10.5000195 13.4998633,11.1715837 13.4998633,12 C13.4998633,12.8284163 14.1714274,13.4999805 14.9998437,13.4999805 C15.8282601,13.4999805 16.4998242,12.8284163 16.4998242,12 C16.4998242,11.1715837 15.8282601,10.5000195 14.9998437,10.5000195 Z M8.99992187,3 C10.3654293,3 11.5568323,3.9266093 11.8930092,5.2500879 L11.8930092,5.2500879 L20.2497754,5.2500879 C20.6639835,5.2500879 20.9997656,5.58586996 20.9997656,6.00007813 C20.9997656,6.4142863 20.6639835,6.75006836 20.2497754,6.75006836 L20.2497754,6.75006836 L11.8930092,6.75006836 C11.5568323,8.07354696 10.3654293,9.00015626 8.99992187,9.00015626 C7.63441446,9.00015626 6.4430114,8.07354696 6.10683454,6.75006836 L6.10683454,6.75006836 L3.74999023,6.75006836 C3.33578207,6.75006836 3,6.4142863 3,6.00007813 C3,5.58586996 3.33578207,5.2500879 3.74999023,5.2500879 L3.74999023,5.2500879 L6.10683454,5.2500879 C6.4430114,3.9266093 7.63441446,3 8.99992187,3 Z M8.99992187,4.50009766 C8.17150553,4.50009766 7.4999414,5.17166179 7.4999414,6.00007813 C7.4999414,6.82849447 8.17150553,7.5000586 8.99992187,7.5000586 C9.82833821,7.5000586 10.4999023,6.82849447 10.4999023,6.00007813 C10.4999023,5.17166179 9.82833821,4.50009766 8.99992187,4.50009766 Z" id="Settings"></path>
            </g>
        </g>
    </g>
</svg>

<svg width="24" height="24" viewBox="0 0 24 24" xmlns="http://www.w3.org/2000/svg"><path d="M9 15c1.365 0 2.557.926 2.893 2.25h8.357a.75.75 0 0 1 0 1.5h-8.357a2.985 2.985 0 0 1-5.786 0H3.75a.75.75 0 0 1 0-1.5h2.357A2.985 2.985 0 0 1 9 15Zm0 1.5a1.5 1.5 0 1 0 0 3 1.5 1.5 0 0 0 0-3ZM15 9c1.365 0 2.557.927 2.893 2.25h2.357a.75.75 0 1 1 0 1.5h-2.357a2.985 2.985 0 0 1-5.786 0H3.75a.75.75 0 1 1 0-1.5h8.357A2.985 2.985 0 0 1 15 9Zm0 1.5a1.5 1.5 0 1 0 0 3 1.5 1.5 0 0 0 0-3ZM9 3c1.365 0 2.557.927 2.893 2.25h8.357a.75.75 0 0 1 0 1.5h-8.357a2.985 2.985 0 0 1-5.786 0H3.75a.75.75 0 0 1 0-1.5h2.357A2.985 2.985 0 0 1 9 3Zm0 1.5a1.5 1.5 0 1 0 0 3 1.5 1.5 0 0 0 0-3Z" fill="#000" fill-rule="nonzero"/></svg>
